X:34
T:La Mau Maridada
M:2/4
L:1/8
N:Recueillie et note par MM. J-B Chze,
N: Lon Branchet et Johanns Plantadis
N:Lourd cadence
N:Mouvt de marche
N:La Bourre 4th edition 1929, page 46
Z:Steve Mansfield www.lesession.co.uk May 2012
K:G
G F/ G/ |: A F c B | A A G G |
A G c B |1 A2 G F/ G/ :|2 A2 z2 || !accent!G G A c |
B A d > e | d d G F | E2 D2 | !accent!G  F/ G/ A c |
B A d > e | d G c B | A2 G2- | G2 z2 |]
<end>
<start>
